X:6
T:Mrs Ronnie Eastwood
C:Bruce Gandy
B:William Livingstone Volume 1
H:
O:Kevin Fraser
Z:Kevin Fraser
Q:1/4=90
K:HP
M:9/8
L:1/8
R:March
U: R = ///
U: r = //
U: V = !accent!
V:M gstem=up stem=down name="Melody" sname="Melody" 
V:H gstem=up stem=down name="Harmony" sname="Harmony"
V:C gstem=up stem=down name="C-Harmony" sname="C-Harmony"
V:S gstem=up stem=down clef=none dyn=up name="Snare" sname="Snare"
V:B gstem=up stem=down clef=none dyn=up name="Bass" sname="Bass"
V:T gstem=up stem=down clef=none dyn=up name="Tenor" sname="Tenor"
V:BB gstem=up stem=down name="Brass Bass" sname="Bass" transpose=-1  octave=-2 clef=bass
V:BC gstem=up stem=down name="Brass Chord" sname="ABCD-D" transpose=-1
V:BD gstem=up stem=down name="Brass Chord 2" sname="ABCD-B" transpose=-1
V:P gstem=up stem=down name="Piano" sname="Piano" transpose=0 octave=-1
I:MIDI=program 110
%%MIDI gracedivider 4
% %score {M BC BD BB}
% %MIDI program 109 #bagpipes
%%MIDI vol 100
[V:M] e | {g}A>Bd {gef}e3 {Gcd}d2 e | {gde}d>B{d}G {g}A3-A2{GAG}A | 
[V:M]      {g}B<de {g}f3 {ag}a2f | {g}d>g{a}f {gef}e3-e>{g}ef | 
[V:M]    a>f{g}e {gfg}f3 {Gdc}d>e{g}f | g>{a}Bd {gcd}c3 {G}A3 | 
[V:M]    {Gdc}d>ef {gBG}B3 {gef}e2d | {gcd}c>B{G}A {Gdc}d3-d2 |] 
[V:M] {g}A | a2{GdG}a {fg}f3 {Gcd}d2 f | {gef}e>dB {g}A3-A2{GAG}A | 
[V:M]      {g}d{GBG}A2 {ag}a3 {fg}f2e | {g}d>g{a}f {gef}e3-e>{g}ef | 
[V:M]    a>f{g}e {gfg}f3 {Gdc}d>e{g}f | g>{a}Bd {gcd}c3 {G}A3 | 
[V:M]    {Gdc}d>ef {gBG}B3 {gef}e2d | {gcd}c>B{G}A {Gdc}d3-d2 |] 


